src/images/SVG/log-out.svg

<svg xmlns="http://www.w3.org/2000/svg" width="24" height="24" viewBox="0 0 24 24"><path d="M16 9v-4l8 7-8 7v-4h-8v-6h8zm-2 10v-.083c-1.178.685-2.542 1.083-4 1.083-4.411 0-8-3.589-8-8s3.589-8 8-8c1.458 0 2.822.398 4 1.083v-2.245c-1.226-.536-2.577-.838-4-.838-5.522 0-10 4.477-10 10s4.478 10 10 10c1.423 0 2.774-.302 4-.838v-2.162z"/></svg>

<svg xmlns="http://www.w3.org/2000/svg" width="24" height="24"><path d="M16 9V5l8 7-8 7v-4H8V9h8zm-2 10v-.083A7.93 7.93 0 0110 20c-4.411 0-8-3.589-8-8s3.589-8 8-8a7.93 7.93 0 014 1.083V2.838A9.957 9.957 0 0010 2C4.478 2 0 6.477 0 12s4.478 10 10 10a9.957 9.957 0 004-.838V19z"/></svg>
